Numix-GalliumOS/64/categories/applications-ruby.svg

<?xml version="1.0" encoding="UTF-8" standalone="no"?>
<svg
   xmlns:dc="http://purl.org/dc/elements/1.1/"
   xmlns:cc="http://creativecommons.org/ns#"
   xmlns:rdf="http://www.w3.org/1999/02/22-rdf-syntax-ns#"
   xmlns:svg="http://www.w3.org/2000/svg"
   xmlns="http://www.w3.org/2000/svg"
   xmlns:sodipodi="http://sodipodi.sourceforge.net/DTD/sodipodi-0.dtd"
   xmlns:inkscape="http://www.inkscape.org/namespaces/inkscape"
   width="64"
   height="64"
   viewBox="0 0 64 64"
   id="svg2"
   version="1.1"
   inkscape:version="0.91 r"
   sodipodi:docname="applications-ruby.svg">
  <metadata
     id="metadata36">
    <rdf:RDF>
      <cc:Work
         rdf:about="">
        <dc:format>image/svg+xml</dc:format>
        <dc:type
           rdf:resource="http://purl.org/dc/dcmitype/StillImage" />
        <dc:title />
      </cc:Work>
    </rdf:RDF>
  </metadata>
  <defs
     id="defs34" />
  <sodipodi:namedview
     pagecolor="#ffffff"
     bordercolor="#666666"
     borderopacity="1"
     objecttolerance="10"
     gridtolerance="10"
     guidetolerance="10"
     inkscape:pageopacity="0"
     inkscape:pageshadow="2"
     inkscape:window-width="1920"
     inkscape:window-height="1056"
     id="namedview32"
     showgrid="true"
     inkscape:zoom="5.6568543"
     inkscape:cx="40.571402"
     inkscape:cy="-4.4373577"
     inkscape:window-x="0"
     inkscape:window-y="24"
     inkscape:window-maximized="1"
     inkscape:current-layer="svg2">
    <inkscape:grid
       type="xygrid"
       id="grid4164" />
  </sodipodi:namedview>
  <path
     inkscape:connector-curvature="0"
     id="path6"
     d="m 26.279793,13.608111 5.186453,13.161605 5.826836,-14.969593"
     style="fill:none;stroke:#de4646;stroke-width:1;stroke-linecap:round;stroke-linejoin:round;stroke-miterlimit:4;stroke-dasharray:none"
     sodipodi:nodetypes="ccc" />
  <path
     inkscape:connector-curvature="0"
     id="path8"
     d="M 26.279793,13.608209 16.214113,27.65551 18.16101,15.116889"
     style="fill:none;stroke:#de4646;stroke-width:1;stroke-linecap:round;stroke-linejoin:round;stroke-miterlimit:4;stroke-dasharray:none"
     sodipodi:nodetypes="ccc" />
  <path
     style="fill:none;stroke:#de4646;stroke-width:1;stroke-linecap:round;stroke-linejoin:round;stroke-miterlimit:4;stroke-dasharray:none"
     d="M 37.293082,11.812355 48.836692,23.412483 46.425954,11.506979"
     id="path12"
     inkscape:connector-curvature="0"
     sodipodi:nodetypes="ccc" />
  <path
     style="fill:none;stroke:#de4646;stroke-width:1;stroke-linecap:round;stroke-linejoin:round;stroke-miterlimit:4;stroke-dasharray:none"
     d="M 7.4999198,27.788986 35.434932,52.499679 23.251695,27.598884 Z"
     id="path14"
     inkscape:connector-curvature="0"
     sodipodi:nodetypes="cccc" />
  <path
     style="fill:none;stroke:#de4646;stroke-width:1;stroke-linecap:round;stroke-linejoin:round;stroke-miterlimit:4;stroke-dasharray:none"
     d="M 7.5008688,27.788986 18.119641,15.116889 26.279793,13.608209 23.251695,27.598884 Z"
     id="path16"
     inkscape:connector-curvature="0"
     sodipodi:nodetypes="ccccc" />
  <path
     style="fill:none;stroke:#de4646;stroke-width:1;stroke-linecap:round;stroke-linejoin:round;stroke-miterlimit:4;stroke-dasharray:none"
     d="m 37.293082,11.800221 9.132872,-0.292792 10.074093,9.725072 -16.083733,4.574575"
     id="path18"
     inkscape:connector-curvature="0"
     sodipodi:nodetypes="cccc" />
  <path
     style="fill:none;stroke:#de4646;stroke-width:1;stroke-linecap:round;stroke-linejoin:round;stroke-miterlimit:4;stroke-dasharray:none"
     d="m 26.279413,13.608209 11.013669,-1.807988 3.123232,14.006855 -17.164619,1.79232"
     id="path20"
     inkscape:connector-curvature="0"
     sodipodi:nodetypes="cccc" />
  <path
     style="fill:none;stroke:#de4646;stroke-width:1;stroke-linecap:round;stroke-linejoin:round;stroke-miterlimit:4;stroke-dasharray:none"
     d="M 35.434932,52.500179 56.500047,21.232501 40.416314,25.806132 Z"
     id="path22"
     inkscape:connector-curvature="0"
     sodipodi:nodetypes="cccc" />
  <path
     style="fill:none;stroke:#de4646;stroke-width:0.5;stroke-linecap:round;stroke-linejoin:round;stroke-miterlimit:4;stroke-dasharray:none"
     d="M 48.836692,23.412603 35.434932,52.500179"
     id="path26"
     inkscape:connector-curvature="0"
     sodipodi:nodetypes="cc" />
  <path
     style="fill:none;stroke:#de4646;stroke-width:0.5;stroke-linecap:round;stroke-linejoin:round;stroke-miterlimit:4;stroke-dasharray:none"
     d="m 31.465614,26.769716 3.969318,25.730463"
     id="path28"
     inkscape:connector-curvature="0"
     sodipodi:nodetypes="cc" />
  <path
     style="fill:none;stroke:#de4646;stroke-width:0.5;stroke-linecap:round;stroke-linejoin:round;stroke-miterlimit:4;stroke-dasharray:none"
     d="M 16.213797,27.65551 35.434932,52.500179"
     id="path30"
     inkscape:connector-curvature="0"
     sodipodi:nodetypes="cc" />
</svg>

<svg xmlns="http://www.w3.org/2000/svg" viewBox="0 0 64 64">
 <path d="m 26.28 13.608 5.186 13.162 5.827 -14.97" style="stroke-dasharray:none;fill:none;stroke-miterlimit:4;stroke:#de4646;stroke-linecap:round;stroke-linejoin:round;stroke-width:1"/>
 <path d="m 26.28 13.608 -10.07 14.05 1.947 -12.539" style="stroke-dasharray:none;fill:none;stroke-miterlimit:4;stroke:#de4646;stroke-linecap:round;stroke-linejoin:round;stroke-width:1"/>
 <path d="m 37.29 11.812 11.544 11.6 -2.411 -11.906" style="stroke-dasharray:none;fill:none;stroke-miterlimit:4;stroke:#de4646;stroke-linecap:round;stroke-linejoin:round;stroke-width:1"/>
 <path d="m 7.5 27.789 27.935 24.711 -12.183 -24.901" style="stroke-dasharray:none;fill:none;stroke-miterlimit:4;stroke:#de4646;stroke-linecap:round;stroke-linejoin:round;stroke-width:1"/>
 <path d="m 7.501 27.789 10.619 -12.672 8.16 -1.509 -3.03 13.991" style="stroke-dasharray:none;fill:none;stroke-miterlimit:4;stroke:#de4646;stroke-linecap:round;stroke-linejoin:round;stroke-width:1"/>
 <path d="m 37.29 11.8 9.133 -0.293 10.07 9.725 -16.08 4.575" style="stroke-dasharray:none;fill:none;stroke-miterlimit:4;stroke:#de4646;stroke-linecap:round;stroke-linejoin:round;stroke-width:1"/>
 <path d="m 26.28 13.608 11.01 -1.808 3.123 14.01 -17.16 1.792" style="stroke-dasharray:none;fill:none;stroke-miterlimit:4;stroke:#de4646;stroke-linecap:round;stroke-linejoin:round;stroke-width:1"/>
 <path d="m 35.435 52.5 21.07 -31.27 -16.08 4.574" style="stroke-dasharray:none;fill:none;stroke-miterlimit:4;stroke:#de4646;stroke-linecap:round;stroke-linejoin:round;stroke-width:1"/>
 <path d="m 48.837 23.413 -13.402 29.09" style="stroke-dasharray:none;fill:none;stroke-miterlimit:4;stroke:#de4646;stroke-linecap:round;stroke-linejoin:round;stroke-width:0.5"/>
 <path d="m 31.466 26.77 3.969 25.73" style="stroke-dasharray:none;fill:none;stroke-miterlimit:4;stroke:#de4646;stroke-linecap:round;stroke-linejoin:round;stroke-width:0.5"/>
 <path d="m 16.214 27.656 19.221 24.845" style="stroke-dasharray:none;fill:none;stroke-miterlimit:4;stroke:#de4646;stroke-linecap:round;stroke-linejoin:round;stroke-width:0.5"/>
</svg>
